X:2225
T:Gigg Time
O:england
M:2/2
L:1/8
S:Armitt MS
K:A major
e|cBAc ecfd|cBAc BEEd|cBAc ecfd|ceBe A2A2||E2Ec dBcA|dfce BAGE|E2Ec dBcA
| dfce Be A2|E2Ec dBcA|dfce BAGF|AcBd cedf ea g/2f/2ga2a2:||


